React/src/assets/images/backend/nodejs.svg

<svg width="130" height="130" viewBox="0 0 130 130" fill="none" xmlns="http://www.w3.org/2000/svg">
<path d="M65 10.0212C63.5375 10.0212 62.0208 10.4004 60.775 11.1046L20.475 34.3962C17.875 35.9129 16.25 38.7296 16.25 41.7629V88.2379C16.25 91.2712 17.875 94.0879 20.475 95.6046L31.0375 101.671C36.1833 104.163 37.9167 104.217 40.3 104.217C47.8833 104.217 52.2708 99.6129 52.2708 91.5962V45.7171C52.2708 45.0671 51.7292 44.5254 51.0792 44.5254H46.0417C45.3375 44.5254 44.7958 45.0671 44.7958 45.7171V91.5962C44.7958 95.1712 41.1125 98.6921 35.2083 95.7129L24.1042 89.3754C23.725 89.1046 23.5083 88.6712 23.5083 88.2379V41.7629C23.5083 41.2754 23.725 40.8421 24.1042 40.6254L64.4042 17.3879C64.7292 17.1712 65.2708 17.1712 65.5958 17.3879L105.896 40.6254C106.275 40.8421 106.492 41.2754 106.492 41.7629V88.2379C106.492 88.6712 106.275 89.1046 105.896 89.3754L65.5958 112.613C65.2708 112.83 64.7292 112.83 64.35 112.613L54.1667 106.438C53.7333 106.275 53.3 106.221 53.0292 106.384C50.1583 108.009 49.6167 108.334 46.9625 109.146C46.3125 109.363 45.2833 109.742 47.3417 110.88L60.775 118.842C62.075 119.6 63.4833 119.98 65 119.98C66.5167 119.98 67.925 119.6 69.225 118.842L109.525 95.6046C112.125 94.0879 113.75 91.2712 113.75 88.2379V41.7629C113.75 38.7296 112.125 35.9129 109.525 34.3962L69.225 11.1046C67.9792 10.4004 66.5167 10.0212 65 10.0212V10.0212ZM75.8333 43.3337C64.35 43.3337 57.4708 48.1546 57.4708 56.2796C57.4708 65.0004 64.2958 67.5462 75.3458 68.6296C88.5083 69.9296 89.5375 71.8796 89.5375 74.4796C89.5375 78.9754 85.9083 80.8712 77.4583 80.8712C66.7333 80.8712 64.4583 78.2171 63.6458 72.9087C63.5375 72.3671 63.05 71.9337 62.4542 71.9337H57.2542C56.6042 71.9337 56.1167 72.4212 56.1167 73.1254C56.1167 79.8421 59.8 87.9671 77.4583 87.9671C90.1875 87.9671 97.5 82.9296 97.5 74.1546C97.5 65.4337 91.65 63.1587 79.2458 61.4796C66.7333 59.8546 65.4875 58.9879 65.4875 56.0629C65.4875 53.6254 66.5708 50.3754 75.8333 50.3754C83.9583 50.3754 87.1542 52.1629 88.4 57.7421C88.5083 58.2837 88.9958 58.6629 89.5375 58.6629H94.7917C95.0625 58.6629 95.3875 58.5546 95.6042 58.2837C95.8208 58.0671 95.9833 57.7421 95.875 57.4171C95.1167 47.7754 88.725 43.3337 75.8333 43.3337V43.3337Z" fill="#8BC34A"/>
</svg>

<svg width="130" height="130" fill="none" xmlns="http://www.w3.org/2000/svg"><path d="M65 10.021c-1.462 0-2.98.38-4.225 1.084l-40.3 23.291a8.551 8.551 0 00-4.225 7.367v46.475a8.551 8.551 0 004.225 7.367l10.563 6.066c5.145 2.492 6.879 2.546 9.262 2.546 7.583 0 11.97-4.604 11.97-12.62v-45.88c0-.65-.54-1.192-1.19-1.192h-5.038c-.705 0-1.246.542-1.246 1.192v45.88c0 3.574-3.684 7.095-9.588 4.116l-11.104-6.338a1.413 1.413 0 01-.596-1.137V41.763c0-.488.217-.92.596-1.138l40.3-23.237c.325-.217.867-.217 1.192 0l40.3 23.237c.379.217.596.65.596 1.138v46.475c0 .433-.217.867-.596 1.137l-40.3 23.238c-.325.217-.867.217-1.246 0l-10.183-6.175c-.434-.163-.867-.217-1.138-.054-2.87 1.625-3.412 1.95-6.067 2.762-.65.217-1.679.596.38 1.734l13.433 7.962A8.244 8.244 0 0065 119.98c1.517 0 2.925-.38 4.225-1.138l40.3-23.237a8.551 8.551 0 004.225-7.367V41.763a8.551 8.551 0 00-4.225-7.367l-40.3-23.291C67.979 10.4 66.517 10.02 65 10.02zm10.833 33.313c-11.483 0-18.362 4.82-18.362 12.946 0 8.72 6.825 11.266 17.875 12.35 13.162 1.3 14.191 3.25 14.191 5.85 0 4.495-3.629 6.391-12.079 6.391-10.725 0-13-2.654-13.812-7.962a1.222 1.222 0 00-1.192-.975h-5.2c-.65 0-1.137.487-1.137 1.191 0 6.717 3.683 14.842 21.341 14.842 12.73 0 20.042-5.037 20.042-13.812 0-8.721-5.85-10.996-18.254-12.675-12.513-1.625-13.758-2.492-13.758-5.417 0-2.438 1.083-5.688 10.345-5.688 8.125 0 11.321 1.788 12.567 7.367.108.542.596.92 1.137.92h5.255c.27 0 .596-.107.812-.378.217-.217.38-.542.271-.867-.758-9.642-7.15-14.083-20.042-14.083z" fill="#8BC34A"/></svg>
